X: 32
T: No_127_Song_Before_Starting_on_the_Warpath.krn
N: Derived from No_127_Song_Before_Starting_on_the_Warpath.krn
%%abc-version 2.0
%%abcx-abcm2ps-target-version 5.9.1 (29 Sep 2008)
%%abc-creator hum2abc beta
%%abcx-conversion-date 2019/03/15 08:37:56
%%humdrum-veritas 4189828816
%%humdrum-veritas-data 3121654849
%%linebreak <none>
%%barnumbers 0
L: 1/8
M: 3/4
K: A clef=bass
[K:clef=bass][M:3/4]C2B,B, B,B, ||  
[M:2/4]B,/B,3/ CB, | 
B,A, F,E, | 
E,/E,3/E,2 | 
A,2F,D, ||  
[M:3/8]F,2E, ||  
[M:2/4]E,3E, | 
E,4 ||  
[M:3/4]C2B,B, B,B, ||  
[M:2/4]B,/B,3/B,2 | 
B,A, F,F, | 
E,/E,3/ E, z | 
A,2F,D, ||  
[M:3/8]F,2E, ||  
[M:2/4]E,2E,E, | 
E,3z | 
A,F, B,B, | 
C2B,B, ||  
[M:3/4]B,2A,2F,F, ||  
[M:3/8]E, z F, ||  
[M:2/4]A,2F,D, ||  
[M:3/8]F,2E, ||  
[M:2/4]E,3E, | 
E,3z | 
A,F, B,B, | 
C2B,B, ||  
[M:3/4]B,2A,2F,F, ||  
[M:3/8]E, z F, ||  
[M:2/4]A,2F,D, ||  
[M:3/8]F,2E, ||  
[M:2/4]E,3E, | 
E,4 |]  



